icons/themes/default/code-solid.svg

<svg viewBox="0 0 16 16" fill="none" xmlns="http://www.w3.org/2000/svg">
<path d="M12.5083 0.571289H3.4919C2.71737 0.571289 1.97456 0.878969 1.42689 1.42664C0.879213 1.97432 0.571533 2.71712 0.571533 3.49165V12.5081C0.571533 13.2826 0.879213 14.0254 1.42689 14.5731C1.97456 15.1208 2.71737 15.4284 3.4919 15.4284H12.5083C13.2828 15.4284 14.0256 15.1208 14.5733 14.5731C15.121 14.0254 15.4287 13.2826 15.4287 12.5081V3.49165C15.4287 2.71712 15.121 1.97432 14.5733 1.42664C14.0256 0.878969 13.2828 0.571289 12.5083 0.571289ZM5.11166 12.0134C5.03817 12.0879 4.95059 12.1471 4.85402 12.1875C4.75745 12.2279 4.65381 12.2487 4.54913 12.2487C4.44445 12.2487 4.34081 12.2279 4.24424 12.1875C4.14767 12.1471 4.06009 12.0879 3.9866 12.0134C3.83799 11.8639 3.75457 11.6616 3.75457 11.4508C3.75457 11.24 3.83799 11.0378 3.9866 10.8883L6.07713 8.79777L3.9866 6.70724C3.83635 6.55805 3.75152 6.35528 3.75077 6.14354C3.75002 5.93181 3.83342 5.72844 3.98261 5.57819C4.1318 5.42794 4.33457 5.34311 4.54631 5.34237C4.75805 5.34162 4.96141 5.42501 5.11166 5.5742L7.76871 8.23126C7.91732 8.38075 8.00074 8.58299 8.00074 8.79378C8.00074 9.00458 7.91732 9.20681 7.76871 9.35631L5.11166 12.0134ZM11.4471 12.2448H8.79802C8.60118 12.225 8.41871 12.1328 8.28599 11.9861C8.15328 11.8394 8.0798 11.6487 8.0798 11.4508C8.0798 11.253 8.15328 11.0622 8.28599 10.9155C8.41871 10.7688 8.60118 10.6767 8.79802 10.6569H11.4471C11.6439 10.6767 11.8264 10.7688 11.9591 10.9155C12.0918 11.0622 12.1653 11.253 12.1653 11.4508C12.1653 11.6487 12.0918 11.8394 11.9591 11.9861C11.8264 12.1328 11.6439 12.225 11.4471 12.2448Z" fill="currentColor"/>
</svg>

<svg xmlns="http://www.w3.org/2000/svg" fill="none" viewBox="0 0 16 16">
  <path fill="currentColor" d="M12.508.571H3.492a2.92 2.92 0 0 0-2.92 2.92v9.017a2.92 2.92 0 0 0 2.92 2.92h9.016a2.92 2.92 0 0 0 2.92-2.92V3.492a2.92 2.92 0 0 0-2.92-2.92ZM5.112 12.013a.79.79 0 0 1-1.125 0 .798.798 0 0 1 0-1.125l2.09-2.09-2.09-2.09a.798.798 0 0 1 1.125-1.134l2.657 2.657a.798.798 0 0 1 0 1.125l-2.657 2.657Zm6.335.232H8.798a.798.798 0 0 1 0-1.588h2.65a.798.798 0 0 1 0 1.588Z"/>
</svg>
